X:1
T:Combien que iay
T:Jean Doublet
T:Source : Second livre contenant 25 chansons nouvelles à 4 parties---Paris---P.Attaignant---1536. Editor : André Vierendeels (28/12/17).
T:Combien que iay
T:©
T:©
T:©
T:©
T:©
C:Jean Doublet
Z:©
%%score [ 1 [ 2 3 4 ] ]
L:1/8
Q:1/4=120
M:2/2
K:F
V:1 treble nm="Soprano" snm="S"
V:2 treble-8 nm="Tenor 1" snm="T 1"
V:3 treble-8 nm="Tenor 2" snm="T 2"
V:4 treble-8 nm="Tenor 3" snm="T 3"
V:1
 c8 | c3 B G2 A2 | B4 A4- | A4 z4 | z4 z2 G2 | A2 c3 BAG | B2 A3 GFE | F2 E2 D4 | z2 G2 A4 | %9
w: Com-|bien _ _ _|que iay|_|do-|leur ve- he- * *||* men- te,|do- leur,|
 z4 z2 G2 | A8 | z4 z2 D2 | E2 G3 F F2- | F2 E2 F4 | z2 A2 A2 A2 | G2 A3 G GF/G/ | A4 z4 | %17
w: do-|leur,|do-|leur ve- he- men-|* * te,|ie ne me|veulx _ _ _ _ _|_|
 z2 F2 A2 G2 | A2 B2 c3 A | BcBA/G/ F2 A2 | G3 A B2 A2- | AB c4 B2 | AG c4 B2 | c4 z2 c2- | %24
w: de tay- mer|re- pen- * *|||||tir, don-|
 c2 B4 A2 | B4 z2 F2 | F2 F2 G4 | z2 G2 c2 c2 | A2 F2 c2 B2 | A2 G2 A4- | A4 z4 | z2 G2 c2 c2 | %32
w: * cor de|brief, donc-|or de brief,|fais moy ce|bien _ _ _|_ sen- tir,|_|fais moy ce|
 A2 F2 c2 B2- | BA A4 G2 | A8 | z2 c2 c3 B | G2 A2 B4 | A8 | z8 | z2 G2 A2 c2- | cB AG B2 A2- | %41
w: bien _ _ _|_ _ _ sen-|tir,|af- fin _|_ _ qual-|ieurs||mon corps _|ne _ _ _ mect' en-|
 AG FE F2 E2 | D4 z2 G2 | A4 z4 | z2 G2 A4- | A4 z4 | z2 D2 E2 G2- | GF F4 E2 | F8 |] %49
w: * * * * ven- *|te, mon|corps,|mon corps|_|ne mect' en-|* * ven- *|te.|
V:2
 F3 G AGAB | cBcd e2 f2- | f2 e2 f2 FG | ABcd ef g2- | g2 f4 e2 | f4 z2 c2 | d2 f3 e dc | %7
w: Com- * * * * *|bien _ _ _ _ _|_ que iay, com- *|* * * * * * bien|_ _ que|iay do-|leur ve- * * *|
 BA c4 B2 | c4 z2 c2 | d2 e2 f2 e2 | f4 z2 d2 | e2 g4 f2- | f2 e3 d cB | c4 z2 c2 | d2 c2 f2 f2 | %15
w: he- * men- *|te, do-|leur ve- he- men-|te, do-|leur ve- he-|* men- * * *|te, ie|ne me veulx de|
 e2 f4 ed | e2 f2 c4 | d4 z2 c2 | e2 d2 e2 f2 | g3 f/e/ dc f2- | f2 e2 f4 | z2 c2 d2 e2 | f4 g4 | %23
w: tay- * * *|mer re- pen-|tir, ie|ne me veulx de|tay- * * mer _ re-|* pen- tir,|de tay- mer|re- pen-|
 e4 z4 | z2 f2 f2 f2 |"^b" gfde f4 | z2 B2 B2 B2 | c8 | z2 c2 A2 B2 | c2 d2 A3 B | c3 d e2 f2- | %31
w: tir,|don- cor de|brief _ , _ _|don- cor de|brief,|fais moy ce|brien sen- * *||
 f2 ed c4 | z2 f4 f2 | f4 d4 | z4 F3 G | AGAB c3 d | e2 f4 e2 | f2 FG ABcd | ef g4 f2- | f2 e2 f4 | %40
w: * * * tir,|ce bien|sen- tir,|af- *|* * * * fin _|_ _ qual-|ieurs, , af- * * * *|fin _ _ _|_ qual- ieurs,|
 z2 c2 d2 f2- | fe dc B2 c2- | c2 B2 c4 | z2 c2 d2 e2 | f2 e2 f4 | z2 d2 e2 g2- | g2 f4 e2- | %47
w: mon corps ne|_ _ mect' en _ ven-|* * te,|ne mect' en|ven- * te,|ne mect' en|ven- * *|
 ed cB c4- | c8 |] %49
w: * * * * te.|_|
V:3
 z8 | z8 | z4 c4- | c4 c3 B | G2 A2 B4 | A8 | z8 | z8 | z8 | z2 G2 A2 c2- | cBAG FE F2 | G4 z2 A2 | %12
w: ||Com-|* bien _|_ _ que|iay||||do- leur ve-|* * * * he- * men-|te, do-|
 c3 B G2 A2 | G4 F4- | F8 | z2 d2 d2 d2 | c2 F2 A2 G2 | A2 B2 c4- | c2 B2 A4 | G4 z4 | z4 z2 F2 | %21
w: leur ve- he _|men- te,|_|ie ne me|veulx de tay- mer|re- pen- *||tir,|re-|
 A2 G2 A2 B2 | c4 d4 | z2 c2 c3 c | d4 z2 c2- | c2 B4 A2 | B4 z2 G2 | G2 G2 A4- | A4 z4 | %29
w: pen- * * *|tir, _|don- cor de|brief, don-|* cor de|brief, don-|cor de brief,|_|
 z2 G2 c2 c2 | A2 F2 c2 B2 | A2 G2 A4 | z2 c2 c2 d2- | d2 c2 B4 | A8 | z8 | z8 | c8 | c3 B G2 A2 | %39
w: fais moy ce|bien _ _ _|_ sen- tir,|fais moy ce|_ bien sen-|tir,|||af-|fin _ _ _|
 B4 A4- | A4 z4 | z8 | z8 | z4 z2 G2 | A2 c3 BAG | FE F2 G4 | z2 A2 c3 B | G2 A2 G4 | F8 |] %49
w: qual- ieurs|_|||mon|corps _ _ _ _|_ _ _ _|ne mect' _|_ en ven-|te.|
V:4
 z4 F3 G | AGAB c2 A2 | G4 F4 | z2 F2 C3 D | E2 F2 G4 | F8 | z8 | z4 z2 G2 | A2 c3 BAG | %9
w: Com- *|* * * * * bien|que iay,|com- bien _|_ _ que|iay||do-|leur ve- * * *|
 F2 E2 D2 C2 | F3 E DC D2 | C3 D E2 F2 | C3 D E2 F2 | C4 F4- | F4 z2 F2 | G2 F2 B2 B2 | %16
w: he- * * *||||men- te,|_ ie|ne me veulx de|
 A3 G F2 E2 | D4 C4 | z8 | z2 G2 B2 A2 | B2 c2 d2 D2 | F2 E2 F2 G2 | A4 G4 | C4 F4 | z4 F4 | %25
w: tay- mer re- pen-|* tir,||ie ne me|veulx de tay- *|mer re- * *|pen- *|tir, _|don-|
"^b" E2 G2 F4 | z2 B,2 _E2 E2 | C4 z2 F2 | F6 G2 | A2 B2 F4 | z2 F2 C2 D2 | C4 z2 F2 | F6 B,2 | %33
w: cor de brief,|don- cor de|brief, fais|moy ce|bien sen- tir,|ce bien sen-|tir, fais|moy ce|
 F4 G4 | F4 z4 | F3 G AGAB | c2 A2 G4 | F4 z2 F2 | C3 D E2 F2 | G4 F4- | F4 z4 | z8 | %42
w: bien sen-|tir,|af- fin _ _ _ _|_ _ qual-|ieurs, af-|fin _ _ _|qual- ieurs,|_||
 z2 G2 A2 c2- | cBAG F2 E2 | D2 C2 F3 E | DC D2 C3 D | E2 F2 C3 D | E2 F2 C4 | F8 |] %49
w: mon corps ne|_ _ _ _ _ mect'|en ven- * *||||te.|

